Papirus-Adapta/24x24/panel/dropboxstatus-idle.svg

<svg xmlns="http://www.w3.org/2000/svg" width="24" height="24" version="1.1">
 <defs>
  <style id="current-color-scheme" type="text/css">
   .ColorScheme-Text { color:#cfd8dc; } .ColorScheme-Highlight { color:#00b4cb; }
  </style>
 </defs>
 <path style="fill:currentColor" class="ColorScheme-Text" d="m8.0098 4-5 3 4 2.9844l-4.0098 3.0076 5.0098 3.008 4-3-5-3 5-3 5 3.0156-5 2.9844 1.7773 1.334a5 5 0 0 1 4.223 -2.33 5 5 0 0 1 2.9805 0.99414l0.0293-0.0176-4.009-2.97 4-3-5-3-4 2.9844-4-2.9844zm10 9a4 4 0 0 0 -4 4 4 4 0 0 0 4 4 4 4 0 0 0 4 -4 4 4 0 0 0 -4 -4zm0 0.49219a3.5 3.5 0 0 1 0.54297 0.0469c-0.19832-0.0312-0.39859-0.0485-0.59961-0.0449a3.5 3.5 0 0 1 0.057 -0.01zm-0.06836 0.002c-0.16063 0.003-0.32073 0.019-0.48047 0.0449a3.5 3.5 0 0 1 0.48047 -0.0449zm-0.50586 0.0488c-0.16478 0.028-0.32899 0.0669-0.49023 0.11914a3.5 3.5 0 0 1 0.49023 -0.11914zm1.2715 0.0254a3.5 3.5 0 0 1 0.40234 0.10742c-0.13149-0.0438-0.26662-0.0797-0.40234-0.10742zm-1.7695 0.0957c-0.15326 0.0501-0.30335 0.11327-0.45117 0.18555a3.5 3.5 0 0 1 0.45117 -0.18555zm2.3242 0.0664a3.5 3.5 0 0 1 0.36914 0.16992c-0.12034-0.0636-0.2429-0.12114-0.36914-0.16992zm-2.8184 0.14062c-0.15054 0.0762-0.29709 0.16204-0.43945 0.26172-0.19828 0.13884-0.37894 0.29598-0.53906 0.46485-0.1533 0.16167-0.28699 0.33612-0.4043 0.51953a3.5 3.5 0 0 1 0.4043 -0.51953 3.5 3.5 0 0 1 0.97852 -0.72657zm3.3418 0.11524a3.5 3.5 0 0 1 0.42188 0.28906c-0.13348-0.10894-0.27612-0.20219-0.42188-0.28906zm-7.776 0-4 3-1-0.59961v0.59961l5 3 1.4766-0.88477a5 5 0 0 1 -0.477 -2.12 5 5 0 0 1 0.396 -1.95l-1.396-1.05zm8.1992 0.27539a3.5 3.5 0 0 1 0.43359 0.42188 3.5 3.5 0 0 1 0.002 0.002 3.5 3.5 0 0 1 0.71289 1.2949 3.5 3.5 0 0 1 0.10547 0.4375 3.5 3.5 0 0 1 0.04297 0.46094c-0.005-0.153-0.019-0.307-0.044-0.46-0.024-0.15-0.06-0.296-0.105-0.437-0.045-0.142-0.098-0.279-0.158-0.415l-3.1816 3.6348-0.34375 0.40625-0.39258-0.375-1.502-1.502c-0.18852-0.1885-0.18851-0.53218 0-0.7207 0.18852-0.1885 0.53219-0.18852 0.7207 0l1.127 1.127 3.0156-3.4531c-0.13452-0.15508-0.27888-0.2955-0.43359-0.42188zm-5.1816 0.89453c-0.10839 0.1764-0.19867 0.36018-0.27344 0.55078a3.5 3.5 0 0 1 0.27344 -0.55078zm-0.29102 0.59766c-0.072 0.191-0.127 0.388-0.164 0.588a3.5 3.5 0 0 1 0.16406 -0.58789zm-0.17578 0.6543c-0.03385 0.20256-0.05101 0.40916-0.04883 0.61523a3.5 3.5 0 0 1 -0.002 -0.0449 3.5 3.5 0 0 1 0.05078 -0.57031zm6.9473 0.50781a3.5 3.5 0 0 1 0.002 0.0625 3.5 3.5 0 0 1 -0.02148 0.38086c0.01581-0.14709 0.02244-0.29484 0.01953-0.44336zm-6.9922 0.17578c0.0056 0.18648 0.02661 0.37164 0.0625 0.55664a3.5 3.5 0 0 1 -0.0625 -0.55664zm0.0918 0.68945c0.04184 0.17791 0.09713 0.35505 0.16797 0.52735a3.5 3.5 0 0 1 -0.16797 -0.52735zm0.22461 0.6543c0.08065 0.17586 0.17477 0.34829 0.28711 0.51367a3.5 3.5 0 0 1 -0.28711 -0.51367zm6.3242 0.0644c-0.0034 0.007-0.0063 0.0144-0.0098 0.0215a3.5 3.5 0 0 1 -0.07422 0.15039c-0.0036 0.007-0.008 0.0129-0.01172 0.0195 0.03491-0.0624 0.06482-0.12721 0.0957-0.19141zm-0.19336 0.34961c-0.007 0.0108-0.01254 0.0224-0.01953 0.0332a3.5 3.5 0 0 1 -0.10156 0.14649c0.04257-0.0589 0.08253-0.11867 0.12109-0.17969zm-5.7715 0.19727c0.10968 0.15001 0.22984 0.28675 0.35742 0.41406a3.5 3.5 0 0 1 -0.35742 -0.41406zm5.5156 0.16015c-0.0041 0.005-0.0075 0.0106-0.01172 0.0156a3.5 3.5 0 0 1 -0.16797 0.18164c0.06199-0.0643 0.12342-0.1292 0.17969-0.19727zm-5.0371 0.3711c0.1253 0.11345 0.2586 0.21405 0.39648 0.30664a3.5 3.5 0 0 1 -0.398 -0.306zm4.2812 0.31054a3.5 3.5 0 0 1 -0.46289 0.25977c-0.0072 0.003-0.01432 0.006-0.02148 0.01 0.16574-0.0765 0.3279-0.16483 0.48438-0.26954zm-3.7031 0.11133c0.12543 0.0734 0.25616 0.13663 0.38867 0.19336a3.5 3.5 0 0 1 -0.38867 -0.19336zm3.082 0.21875c-0.0046 0.002-0.0091 0.004-0.01367 0.006a3.5 3.5 0 0 1 -0.45703 0.14649c0.15863-0.0401 0.31668-0.0891 0.4707-0.15235zm-2.4238 0.0762c0.13474 0.0449 0.26931 0.0871 0.4082 0.11524a3.5 3.5 0 0 1 -0.4082 -0.11524zm1.7109 0.12696a3.5 3.5 0 0 1 -0.43164 0.0508c-0.0046 0.00023-0.0091-0.00021-0.01367 0 0.14919-0.007 0.29707-0.0245 0.44531-0.0508zm-1.0938 0.0215c0.13749 0.0193 0.27689 0.0284 0.41602 0.0312-0.0059-0.00013-0.0117 0.00015-0.01758 0a3.5 3.5 0 0 1 -0.38281 -0.0293c-0.0052-0.00071-0.01041-0.001-0.01563-0.002z"/>
</svg>

<svg xmlns="http://www.w3.org/2000/svg" width="24" height="24" version="1.1">
 <defs>
  <style id="current-color-scheme" type="text/css">
   .ColorScheme-Text { color:#dfdfdf; } .ColorScheme-Highlight { color:#4285f4; } .ColorScheme-NeutralText { color:#ff9800; } .ColorScheme-PositiveText { color:#4caf50; } .ColorScheme-NegativeText { color:#f44336; }
  </style>
 </defs>
 <path style="fill:currentColor" class="ColorScheme-Text" d="M 8.0098,4 3.0098,7 7.0098,9.9844 3,12.992 8.0098,16 12.01,13 7.0098,10 12.01,7 17.01,10.016 12.01,13 13.787,14.334 C 14.702,12.885 16.296,12.006 18.01,12.004 19.085,12.007 20.13,12.355 20.991,12.998 L 21.02,12.981 17.011,10.011 21.011,7.0105 16.011,4.0105 12.011,6.9949 8.0109,4.0105 Z M 18.01,13 C 15.801,13 14.01,14.791 14.01,17 14.01,19.209 15.801,21 18.01,21 20.219,21 22.01,19.209 22.01,17 22.01,14.791 20.219,13 18.01,13 Z M 12.009,13.986 8.0092,16.986 7.0092,16.387 V 16.986 L 12.009,19.986 13.486,19.102 C 13.173,18.438 13.01,17.715 13.009,16.982 13.009,16.312 13.143,15.648 13.405,15.032 L 12.009,13.982 Z M 21.198,15.567 17.673,19.608 15.778,17.731 C 15.59,17.543 15.59,17.199 15.778,17.01 15.967,16.822 16.311,16.822 16.499,17.01 L 17.626,18.137 20.642,14.684 C 20.913,14.956 21.198,15.567 21.198,15.567 Z"/>
</svg>
